X:0422
T:Women's dance in the Ombres Chinoises.
M:6/8
L:1/8
Q:3/8=120
I: :: ::
Z:Jack Campin * www.campin.me.uk * 2009
K:G
B|d2B d2B| G2G GAB| c2A c2A| FGA D3 |\
  d2B g2d| e2c g2e| dec BcA| G2G G2:|
z|DFA cAF| GBd dBG| DFA cAF| GBd dBG|\
  ece ege| dBd dgd| edc BcA| G2G G2:|

